airbyte/airbyte-config/init/src/main/resources/icons/persistiq.svg

<svg xmlns="http://www.w3.org/2000/svg" width="30" height="30" viewBox="0 0 50 50"><path fill="#4B4B4B" fill-rule="zero" stroke="#000" d="M4 0h42a4 4 0 0 1 4 4v42a4 4 0 0 1-4 4H4a4 4 0 0 1-4-4V4a4 4 0 0 1 4-4Zm12.447 38.62h-.001v-8.28H27.18c7.007 0 10.94-3.736 10.94-9.535 0-5.85-3.882-9.805-10.94-9.805H11v27.62h5.447Zm0-13.807v-8.288h9.926c3.327 0 5.697.996 5.697 4.28 0 3.233-2.37 4.008-5.697 4.008h-9.926Z"/></svg>

<svg viewBox="0 0 50 50" version="1.1" xmlns="http://www.w3.org/2000/svg" xmlns:xlink="http://www.w3.org/1999/xlink" width="30px" height="30px">
    <!-- Generator: Sketch 48.2 (47327) - http://www.bohemiancoding.com/sketch -->
    <g id="Page-1" stroke="black" stroke-width="1" fill="white" fill-rule="evenodd">
        <g id="piq-nav-logo" fill="#4B4B4B" fill-rule="zero">
            <path d="M4,0 L46,0 C48.209139,-4.05812251e-16 50,1.790861 50,4 L50,46 C50,48.209139 48.209139,50 46,50 L4,50 C1.790861,50 2.705415e-16,48.209139 0,46 L0,4 C-2.705415e-16,1.790861 1.790861,4.05812251e-16 4,0 Z M16.447,38.62 L16.446,38.62 L16.446,30.34 L27.18,30.34 C34.187,30.34 38.12,26.604 38.12,20.805 C38.12,14.955 34.238,11 27.18,11 L11,11 L11,38.62 L16.447,38.62 Z M16.447,24.813 L16.447,16.525 L26.373,16.525 C29.7,16.525 32.07,17.521 32.07,20.805 C32.07,24.038 29.7,24.813 26.373,24.813 L16.447,24.813 Z" id="Combined-Shape"></path>
        </g>
    </g>
</svg>
